X: 188
T: The Boy In The Gap
R: reel
M: C|
L: 1/8
K: Dmix
|:D2 FA dedc|~A2 GE cEGE|D2 FA dedc|~A2 GE EDDA|
D2 FA dedc|~A2 GE cEGE|D2 FA dedc|~A2 GE ED D2:|
|:~f3 g fedf|efgf ed^cB|AB^cd edcd|eaag eaag|
~f3 g fedf|efgf ed^cB|AB^cd edcA|~A2 GE ED D2:|
|:df ~f2 df ~f2|^ce ~e2 ce ~e2|dffe ~f3g|afge fdde|
~f2 eg fdAF|~G2 BG EFGE|D2 FA dedc|~A2 GE ED D2:| 

